!!!OTL: 121. Buko von Halberstadt. / B.
!!!ARE: Europa, Mitteleuropa, Deutschland, Norddeutschland, Zerbst
!!!SCT: K0121A
!!!TXL: @@NDS
!!!YEM: Copyright 1995, estate of Helmut Schaffrath.
**kern	**text
*clefG2	*
*M2/4	*
*k[b-]	*
*F:	*
=1	=1
{4cc	Bu-
8a	-ko
8dd	von
=2	=2
8cc	Hal-
16ccL	-ber-
16b-J	.
8a	-ſtadt,
8r}	.
=3	=3
{8cc	bring
8cc	doch
8a	un-
8dd	-ſe
=4	=4
8cc	Kin-
16ccL	-deken
16b-J	.
8a;}	wat!
{8c	Wat
=5	=5
8f	ſoll
8f	ik
8g	em
8g	denn
=6	=6
4a	bringen?
8g}	.
{8c	'n_Paar
=7	=7
8f	ro-
8f	-the
8g	Schoh
8g	met
=8	=8
4a	Ringen,
8g}	.
{8g	Paar
=9	=9
8f	ro-
8f	-the
8g	Schoh
8g	met
=10	=10
8a	Gold
8a	beſchloan,
8g}	.
{8b-	da
=11	=11
8a	kann
16f	un-
16f	-ſe
8g	Kind
16c	drop
16c	to
=12	=12
8f	an-
8f	-ʒe
8f	goahn.
8r}	.
==	==
!!!AGN: Kinder -, Wiegen - Lied
!!!ONB: ESAC (Essen Associative Code) Database: KINDER
!!!AMT: simple duple
!!!AIN: vox
!!!EED: Helmut Schaffrath
!!!EEV: 1.0
!!!GTL: I. Wiegenlieder.
!!@@COMMENT:"Aus Ʒerbſt: Erk J 6, 62. Noch heute in Rorddeutſchland gehört."
!!@@END:
!!!URL-scan: https://archive.org/details/DeutschesKinderliedUndKinderspiel/page/31/mode/1up
!!!ENC: Anna Maria Matuszewska
!!!EEV: 2024/29/08
*-	*-
